!!!OTL@@FUR: Tiriti su nine  
!!!OTL@IT: Alzati, cara
!!!OTL@EN: Get up, my dear
**kern
*clefG2
*k[f#,c#]
*D:
*M6/8
*MM60
*>[A,A]
=1!|:
*>A
8a
8a
8a
4a
8f#
=2
4.b
4a
8f#
=3
4a
8dd
4ee
8dd
=4
4.cc#
4b
8b
=5
4ee
8dd
4cc#
8b
=6
4.b
4a
8a
=7
4cc#
8b
4a
8g
=8
[4.f#
4f#]
8r
8r
==:|!
*-
!!!ARE: Friui
!!!ENC: Kelly Leistikow
!!!END: 2002/22/02
!!!ref: @{OTL@@FUR}/@{OTL@EN}
